X:1
T:Dance of the Tamir Agha
T:for B-flat Clarinet
O:Armenia
N: b-flat for the clarinet
Z: transcribed from a recording; originally played on the duduk
L:1/8
M:2/4
Q:1/4=100
K:Gm
|:BA/B/ cB/A/ |G4|{F} F  E/F/ G/F/G/E/ |F4 :|
|:.C.C  G/F/G/E/| .F.F F/E/F/E/ |.C.C  G/F/G/E/|F4:|
